X:103
T: SCHOENE AUGEN SCHOENE STRAHLEN
N: E0701
O: Europa, Mitteleuropa, Deutschland, Schlesien; Brandenburg
R: Liebes - Lied, Leid, Klage
M: 3/4
L: 1/8
K: C
 | CB,CA,G,A, | G,2F,2E,2 |
CB,CA,G,A, | G,2F,2E,2 |
CEEEEC | B,DDDDB, |
CA,G,2B,2 | C2z4

@@@ Tune index: 4416
